gama.ui.shared/icons_svg/dark/display/camera.full.svg

<svg height="25" viewBox="-741.831 -3314.16 25 25" width="25" xmlns="http://www.w3.org/2000/svg"><g fill="none"><circle cx="-729.331" cy="-3301.66" fill="#666" r="12"/><circle cx="-729.331" cy="-3301.66" r="12" stroke="#fff" stroke-linecap="round" stroke-linejoin="round" stroke-width=".25"/><path d="m-732.71395-3298.9307h-1.67225c-1.0733 0-1.9444-.8711-1.9444-1.9443v-3.889c0-1.0733.8711-1.9444 1.9444-1.9444h5.4445c1.05775 0 1.9133.84 1.9444 1.89l1.73446-1.4466c.76224-.63 1.89-.529 2.52.2254.26444.3189.41224.7234.41224 1.1434v4.13c0 .9878-.8011 1.7889-1.7889 1.7889-.42 0-.82445-.1477-1.14334-.4123l-1.73446-1.4466c-.0311 1.05-.88665 1.89-1.9444 1.89h-1.67225l1.92111 1.6489c.16334.14.17889.3889.03889.5523-.14.1632-.38885.1788-.55225.0388l-2.4655-2.1156-2.4656 2.1156c-.1633.14-.4122.1244-.5522-.0388-.14-.1634-.12445-.4123.0389-.5523l1.9211-1.6489zm4.93885-2.7223v-2.3254-.7778c0-.6456-.5211-1.1668-1.1666-1.1668h-5.4445c-.6455 0-1.1666.5212-1.1666 1.1668v3.8889c0 .6455.5211 1.1666 1.1666 1.1666h5.4445c.6455 0 1.1666-.5211 1.1666-1.1666v-.7777zm.7778-2.1543v1.9677l2.2322 1.8589c.1789.1477.41226.2334.6456.2334.56 0 1.0111-.4511 1.0111-1.0111v-4.13c0-.2334-.08555-.4666-.2333-.6456-.3578-.4278-.9956-.49-1.4234-.1322z" fill="#e3e6e1"/></g></svg>

<?xml version="1.0" encoding="UTF-8" standalone="no"?>
<!DOCTYPE svg PUBLIC "-//W3C//DTD SVG 1.1//EN" "http://www.w3.org/Graphics/SVG/1.1/DTD/svg11.dtd">
<svg xmlns="http://www.w3.org/2000/svg" xmlns:xl="http://www.w3.org/1999/xlink" version="1.1" xmlns:dc="http://purl.org/dc/elements/1.1/" viewBox="-741.8306 -3314.1597 25.000035 25" width="25.000035" height="25">
  <defs/>
  <g id="SOURCES" stroke-opacity="1" fill="none" stroke="none" fill-opacity="1" stroke-dasharray="none">
    <title>SOURCES</title>
    <g id="SOURCES_Dark">
      <title>Dark</title>
      <g id="Graphic_11520">
        <circle cx="-729.3306" cy="-3301.6597" r="12.0000278184556" fill="#666"/>
        <circle cx="-729.3306" cy="-3301.6597" r="12.0000278184556" stroke="white" stroke-linecap="round" stroke-linejoin="round" stroke-width=".2500004"/>
      </g>
      <g id="Graphic_11519">
        <path d="M -732.71395 -3298.9307 L -734.3862 -3298.9307 C -735.4595 -3298.9307 -736.3306 -3299.8018 -736.3306 -3300.875 L -736.3306 -3304.764 C -736.3306 -3305.8373 -735.4595 -3306.7084 -734.3862 -3306.7084 L -728.9417 -3306.7084 C -727.88395 -3306.7084 -727.0284 -3305.8684 -726.9973 -3304.8184 L -725.26284 -3306.265 C -724.5006 -3306.895 -723.37284 -3306.794 -722.74284 -3306.0396 C -722.4784 -3305.7207 -722.3306 -3305.3162 -722.3306 -3304.8962 L -722.3306 -3300.7662 C -722.3306 -3299.7784 -723.1317 -3298.9773 -724.1195 -3298.9773 C -724.5395 -3298.9773 -724.94395 -3299.125 -725.26284 -3299.3896 L -726.9973 -3300.8362 C -727.0284 -3299.7862 -727.88395 -3298.9462 -728.9417 -3298.9462 L -730.61395 -3298.9462 L -728.69284 -3297.2973 C -728.5295 -3297.1573 -728.51395 -3296.9084 -728.65395 -3296.745 C -728.79395 -3296.5818 -729.0428 -3296.5662 -729.2062 -3296.7062 L -731.6717 -3298.8218 L -734.1373 -3296.7062 C -734.3006 -3296.5662 -734.5495 -3296.5818 -734.6895 -3296.745 C -734.8295 -3296.9084 -734.81395 -3297.1573 -734.6506 -3297.2973 L -732.7295 -3298.9462 Z M -727.7751 -3301.653 L -727.7751 -3303.9784 L -727.7751 -3304.7562 C -727.7751 -3305.4018 -728.2962 -3305.923 -728.9417 -3305.923 L -734.3862 -3305.923 C -735.0317 -3305.923 -735.5528 -3305.4018 -735.5528 -3304.7562 L -735.5528 -3300.8673 C -735.5528 -3300.2218 -735.0317 -3299.7007 -734.3862 -3299.7007 L -728.9417 -3299.7007 C -728.2962 -3299.7007 -727.7751 -3300.2218 -727.7751 -3300.8673 L -727.7751 -3301.645 Z M -726.9973 -3303.8073 L -726.9973 -3301.8396 L -724.7651 -3299.9807 C -724.5862 -3299.833 -724.35284 -3299.7473 -724.1195 -3299.7473 C -723.5595 -3299.7473 -723.1084 -3300.1984 -723.1084 -3300.7584 L -723.1084 -3304.8884 C -723.1084 -3305.1218 -723.19395 -3305.355 -723.3417 -3305.534 C -723.6995 -3305.9618 -724.3373 -3306.024 -724.7651 -3305.6662 Z" fill="#e3e6e1"/>
      </g>
    </g>
  </g>
</svg>
